!!!OTL: Die dienende Schwester.
!!!OTL-incipit: Es war einmal ein Maegdelein,
!!!ARE: Europa, Mitteleuropa, Deutschland (BRD), Rheinland
!!!YOR: 4, S. 118
!!    ????
!!!SCT: Q0075w
!!!TXL: @@DE
!!!YEM: Copyright 1995, estate of Helmut Schaffrath.
**kern	**text
*ICvox	*
*M3/4	*
*k[b-]	*
*F:	*
!LO:TX:a:t=620 Rheinland	!
{8cc	Es
8cc	war
8cc	ein-
=1	=1
(4ff	-mal
8ee)	.
8ee	ein
8ee	Mägde-
8dd	.
=2	=2
4ff	-lein,
8r}	.
{8b-	das
8b-	wollt
16aL	ſo
16ddJ	.
=3	=3
4dd	gern
8cc	eine
8cc	.
8b-	Dienſtmagd
8cc	.
=4	=4
4a	ſein.
8r}	.
{8cc	Es
8cc	war
8cc	ein-
=5	=5
(4ff	-mal
8ee)	.
8ee	ein
8ee	Mägde-
8dd	.
=6	=6
4ff	-lein,
8r}	.
{8b-	das
8b-	wollt
16aL	ſo
16ddJ	.
=7	=7
4dd	gern
8cc	eine
8cc	.
8b-	Dienſtmagd
8cc	.
=8	=8
4a	ſein.
8r}	.
{8f	Sie
8f	ging
8a	wohl
=9	=9
(4cc	vor
8b-)	.
8a	Frau
8cc	Wirtins
8cc	.
=10	=10
4g	Tür,
8r}	.
{8g	Frau
16b-	Wirtin
16b-	.
16g	nehmen
16g	.
=11	=11
4dd	Sie
8cc	keine
8cc	.
8b-	Dienſtmagd
8cc	.
=12	=12
4a	mehr.
8r}	.
==	==
!!!AGN: Ballade, Adelige als Dienstmagd, Tod; Kinder - Spiel, Tanz
!!!ONB: ESAC (Essen Associative Code) Database: BALLADE
!!!AMT: simple triple
!!!AIN: vox
!!!EED: Helmut Schaffrath
!!!EEV: 1.0
!!!source: Deutsche Volkslieder mit ihren Melodien. Herausgegeben vom Deutschen Volksliedarchiv. Vierter Band. Berlin 1959.
!!!page: 118
!!!ENC: Anna Maria Matuszewska
!!!EEV: 2025/02/27
*-	*-
